X: 1
T: Mairi's Wedding
C: Trad
R: Polka
L: 1/8
M: 2/4
K: D
Z: ABC transcription by Verge Roller
|: "D" A>A AB | "D" de f2 | "G" ed Bd | "A" fe f<a |
"D" A>A AB | "D" de f2 | "G" ed BG | "A" A2 A2 :|
|: "D" a>a ab | "D" ag f2 | "G" ed Bd | "A" fe f<a |
"D" a>a ab | "D" ag f2 | "G" ed BG | "A" A2 A2 :|
r: 32
